packages/bezier-icons/icons/expand.svg

<svg width="24" height="24" viewBox="0 0 24 24" fill="none" xmlns="http://www.w3.org/2000/svg">
<path fill-rule="evenodd" clip-rule="evenodd" d="M20 7.90981C20 8.87911 20 9.36376 19.8083 9.58819C19.642 9.78292 19.3925 9.88625 19.1372 9.86616C18.843 9.84301 18.5003 9.50031 17.8149 8.8149L17.2071 8.2071L14.4749 10.9393C14.0843 11.3298 13.4512 11.3298 13.0607 10.9393C12.6701 10.5488 12.6701 9.91564 13.0607 9.52511L15.7929 6.79288L15.1851 6.1851C14.4997 5.49969 14.157 5.15699 14.1338 4.86277C14.1137 4.60747 14.2171 4.35799 14.4118 4.19168C14.6362 4 15.1209 4 16.0902 4H18.4C18.9601 4 19.2401 4 19.454 4.10899C19.6422 4.20487 19.7951 4.35785 19.891 4.54601C20 4.75992 20 5.03995 20 5.6V7.90981ZM4 16.0902C4 15.1209 4 14.6362 4.19168 14.4118C4.35799 14.2171 4.60747 14.1137 4.86277 14.1338C5.15699 14.157 5.49969 14.4997 6.18508 15.1851L6.18509 15.1851L6.1851 15.1851L6.79289 15.7929L9.52513 13.0607C9.91566 12.6701 10.5488 12.6701 10.9393 13.0607C11.3299 13.4512 11.3299 14.0843 10.9393 14.4749L8.20711 17.2071L8.8149 17.8149L8.81491 17.8149C9.50031 18.5003 9.84301 18.843 9.86616 19.1372C9.88625 19.3925 9.78292 19.642 9.58819 19.8083C9.36376 20 8.87911 20 7.90981 20H5.6C5.03995 20 4.75992 20 4.54601 19.891C4.35785 19.7951 4.20487 19.6422 4.10899 19.454C4 19.2401 4 18.9601 4 18.4V16.0902Z" fill="#313234"/>
</svg>

<svg xmlns="http://www.w3.org/2000/svg" width="24" height="24" fill="none" viewBox="0 0 24 24"><path fill="#313234" fill-rule="evenodd" d="M20 7.91c0 .97 0 1.454-.192 1.678a.8.8 0 0 1-.67.278c-.295-.023-.638-.366-1.323-1.051l-.608-.608-2.732 2.732a1 1 0 0 1-1.414-1.414l2.732-2.732-.608-.608c-.685-.685-1.028-1.028-1.051-1.322a.8.8 0 0 1 .278-.671C14.636 4 15.12 4 16.09 4h2.31c.56 0 .84 0 1.054.109a1 1 0 0 1 .437.437C20 4.76 20 5.04 20 5.6zM4 16.09c0-.97 0-1.454.192-1.678a.8.8 0 0 1 .67-.278c.295.023.638.366 1.323 1.051l.608.608 2.732-2.732a1 1 0 1 1 1.414 1.414l-2.732 2.732.608.608c.685.685 1.028 1.028 1.051 1.322a.8.8 0 0 1-.278.671C9.364 20 8.88 20 7.91 20H5.6c-.56 0-.84 0-1.054-.109a1 1 0 0 1-.437-.437C4 19.24 4 18.96 4 18.4z" clip-rule="evenodd"/></svg>
